!!!OTL: Die Leberwurst (272b), S. 581
!!!id: T0462
**kern
*clefG2
*k[b-]
*F:
{16f
8a
8a
=1
8a
16a
16a
8a
8cc
=2
8cc}
8r
=3
{8b-
8a
=4
8g
16f
8f
16e
8g
=5
4c}
=6
{8b-
8b-
=7
8b-
8b-
8b-
8dd
=8
4dd}
=9
{8cc
8cc
=10
8cc
8cc
8cc
8cc
=11
4f}
=12
{8a
8cc
=13
4f
8a
8cc
=14
4f}
4r
=15
{4.ff
8ee
=16
8ee
8dd
4cc
=17
4.dd
8cc
=18
8cc
8b-
4a}
=19
{4g
8a
8b-
=20
8cc
8dd
8b-
8g
=21
4f
8a
8g
=22
4f}
==
*-
!!!minrhy: 16
!!!meters: 2/4 ]  ZZ[7
!!!cut: Die Leberwurst (272b), S. 581
!!!reg: Luxemburg
!!!trd: Singendes Volk, Esch-Alzette, 1937 posth.
!!!rhy1:  X_X_  X_XXX_X_  X_0_
!!!rhy2: X_X_  X_XX_XX_  X__
!!!key: T0462  16  F 2/4 ]  ZZ[7
!!!mod: HEPTATONIK IONISCH]  AMBITUS[11
!!!kad: 5-561131
!!!akz: 35_2-5_46_51_11_+1765_2511_
!!!fot: 'a__b__as'as"c__as"d__
!!!for: 'a__b__c__c__d__e__dw_
!!!fok: '/__\__/__\__Sd_\__^d_
!! PHRAS[VORWIEGEND AUFTAKTIG]
!!!fkt: ???
!!!bem: Bögen, ? J. Molitor
!! THILL; Mathias
!! PR[32] 2K[2] 2G[16] 3K[5] 3G[2] 4A[9] 4Ü[0] 5A[0] 6K[0] 6G[0]
!! 7K[0] 7G[0] 8A[0] MEHR[0] SI[34] ABS[44] SR[18] SP[16]
!! ST[12] 2k[5] 2g[18] 3k[5] 3g[2] 4d[2] 4ü[0] 5d[2] 6k[0] 6g[0]
!! 7k[0] 7g[0] 8d[0] mehr[0] si[34] dm[0] sr[23] sp[11]
!! 1F[22] 2F[63] 3F[15] 4F[0] LF[0] 2P[0] 3P[0] 4P[0] TRI[0] DF[3] AB[46]
!! TF[0] U3K[0] U3[4] U4[7] U4Ü[0] U5[40] U6K[0] U6[11] U7K[0] U7[2]
!! N1[16] N2K[0] N2[11] N3K[0] N3[7] N4[0] N4Ü[0] N5[2] N6K[0] N6[0]
!!!n7k: 0] N7[0] O1[0] O2K[0] O2[0] O3K[0] O3[0] HÖ[0
